Newaita/actions/32/format-text-strikethrough.svg

<?xml version="1.0" encoding="UTF-8"?>
<svg xmlns="http://www.w3.org/2000/svg" xmlns:xlink="http://www.w3.org/1999/xlink" width="32pt" height="32pt" viewBox="0 0 32 32" version="1.1">
<g id="surface1">
<path style=" stroke:none;fill-rule:nonzero;fill:rgb(25.882354%,25.882354%,25.882354%);fill-opacity:1;" d="M 15.875 4.21875 C 12.925781 4.21875 10.363281 5.414062 8.996094 7.195312 L 11.195312 8.570312 C 12.03125 7.550781 13.640625 6.863281 15.496094 6.863281 L 16.257812 6.863281 C 18.980469 6.863281 21.167969 8.339844 21.167969 10.171875 L 21.167969 11.496094 L 23.816406 11.496094 L 23.816406 10.171875 C 23.816406 6.875 20.273438 4.21875 15.875 4.21875 Z M 8.082031 17.449219 C 7.988281 17.816406 7.9375 18.199219 7.9375 18.585938 L 7.9375 19.25 L 7.988281 19.25 C 8.421875 22.234375 11.777344 24.539062 15.875 24.539062 C 17.914062 24.539062 19.765625 23.96875 21.167969 23.03125 L 21.167969 24.394531 L 23.816406 24.394531 L 23.816406 17.449219 L 20.871094 17.449219 C 21.0625 17.804688 21.167969 18.1875 21.167969 18.585938 C 21.167969 20.417969 18.980469 21.894531 16.257812 21.894531 L 15.496094 21.894531 C 12.773438 21.894531 10.585938 20.417969 10.585938 18.585938 C 10.585938 18.1875 10.6875 17.804688 10.878906 17.449219 Z M 8.082031 17.449219 "/>
<path style=" stroke:none;fill-rule:nonzero;fill:rgb(25.882354%,64.705884%,96.078432%);fill-opacity:1;" d="M 5.015625 12.820312 C 4.800781 12.820312 4.628906 13.066406 4.628906 13.371094 L 4.628906 15.574219 C 4.628906 15.882812 4.800781 16.125 5.015625 16.125 L 27.398438 16.125 C 27.613281 16.125 27.785156 15.882812 27.785156 15.574219 L 27.785156 13.371094 C 27.785156 13.066406 27.613281 12.820312 27.398438 12.820312 Z M 5.015625 12.820312 "/>
</g>
</svg>

<svg xmlns="http://www.w3.org/2000/svg" width="32pt" height="32pt" viewBox="0 0 32 32"><path d="M15.875 4.219c-2.95 0-5.512 1.195-6.879 2.976l2.2 1.375c.835-1.02 2.445-1.707 4.3-1.707h.762c2.722 0 4.91 1.477 4.91 3.309v1.324h2.648v-1.324c0-3.297-3.543-5.953-7.941-5.953zm-7.793 13.23c-.094.367-.145.75-.145 1.137v.664h.051c.434 2.984 3.79 5.29 7.887 5.29 2.04 0 3.89-.571 5.293-1.509v1.364h2.648v-6.946h-2.945c.192.356.297.738.297 1.137 0 1.832-2.188 3.309-4.91 3.309h-.762c-2.723 0-4.91-1.477-4.91-3.31 0-.398.101-.78.293-1.136zm0 0" fill="#78909c"/><path d="M5.016 12.82c-.215 0-.387.246-.387.551v2.203c0 .309.172.551.387.551h22.382c.215 0 .387-.242.387-.55V13.37c0-.305-.172-.55-.387-.55zm0 0" fill="#42a5f5"/></svg>
